svgs/sharp-light/plug.svg

<svg xmlns="http://www.w3.org/2000/svg" viewBox="0 0 384 512"><!--! Font Awesome Pro 6.6.0 by @fontawesome - https://fontawesome.com License - https://fontawesome.com/license (Commercial License) Copyright 2024 Fonticons, Inc. --><path d="M128 16l0-16L96 0l0 16 0 96 32 0 0-96zm160 0l0-16L256 0l0 16 0 96 32 0 0-96zM16 144L0 144l0 32 16 0 16 0 0 64c0 83 63.1 151.2 144 159.2l0 96.8 0 16 32 0 0-16 0-96.8c80.9-8 144-76.2 144-159.2l0-64 16 0 16 0 0-32-16 0-16 0-32 0L64 144l-32 0-16 0zM192 368c-70.7 0-128-57.3-128-128l0-64 256 0 0 64c0 70.7-57.3 128-128 128z"/></svg>

<svg xmlns="http://www.w3.org/2000/svg" viewBox="0 0 384 512"><!--! Font Awesome Pro 6.4.2 by @fontawesome - https://fontawesome.com License - https://fontawesome.com/license (Commercial License) Copyright 2023 Fonticons, Inc. --><path d="M128 16V0H96V16v96h32V16zm160 0V0H256V16v96h32V16zM16 144H0v32H16 32v64c0 83 63.1 151.2 144 159.2V496v16h32V496 399.2c80.9-8 144-76.2 144-159.2V176h16 16V144H368 352 320 64 32 16zM192 368c-70.7 0-128-57.3-128-128V176H320v64c0 70.7-57.3 128-128 128z"/></svg>
